svgs/sharp-light/tire-pressure-warning.svg

<svg xmlns="http://www.w3.org/2000/svg" viewBox="0 0 512 512"><!--! Font Awesome Pro 6.6.0 by @fontawesome - https://fontawesome.com License - https://fontawesome.com/license (Commercial License) Copyright 2024 Fonticons, Inc. --><path d="M400 0l0 16 0 11.6c0 42.2 9.8 83.9 28.7 121.6l5 9.9c.2 .3 .3 .6 .5 .9c18 30.9 36.4 73.1 35.8 120.5c-.6 45.5-18.7 97.9-76.2 151.4l-275.6 0C60.7 378.5 42.6 326.1 42 280.6c-.6-47.4 17.8-89.7 35.8-120.5c.2-.3 .3-.6 .5-.9l5-9.9C102.2 111.4 112 69.8 112 27.6L112 16l0-16L80 0l0 16 0 11.6c0 37.3-8.7 74-25.3 107.3l-4.7 9.5C30.7 177.5 9.3 225.5 10 281c.7 55 23.1 115.3 86 174l0 57 32 0 0-48 64 0 0 48 32 0 0-48 64 0 0 48 32 0 0-48 64 0 0 48 32 0 0-57c62.9-58.7 85.3-119 86-174c.7-55.5-20.7-103.5-39.9-136.6l-4.7-9.5C440.7 101.6 432 64.8 432 27.6L432 16l0-16L400 0zM272 96l-32 0 0 16 0 128 0 16 32 0 0-16 0-128 0-16zM232 288l0 48 48 0 0-48-48 0z"/></svg>

<svg xmlns="http://www.w3.org/2000/svg" viewBox="0 0 512 512"><!--! Font Awesome Pro 6.4.0 by @fontawesome - https://fontawesome.com License - https://fontawesome.com/license (Commercial License) Copyright 2023 Fonticons, Inc. --><path d="M400 0V16 27.6c0 42.2 9.8 83.9 28.7 121.6l5 9.9c.2 .3 .3 .6 .5 .9c18 30.9 36.4 73.1 35.8 120.5c-.6 45.5-18.7 97.9-76.2 151.4H118.2C60.7 378.5 42.6 326.1 42 280.6c-.6-47.4 17.8-89.7 35.8-120.5c.2-.3 .3-.6 .5-.9l5-9.9C102.2 111.4 112 69.8 112 27.6V16 0H80V16 27.6c0 37.3-8.7 74-25.3 107.3l-4.7 9.5C30.7 177.5 9.3 225.5 10 281c.7 55 23.1 115.3 86 174v57h32V464h64v48h32V464h64v48h32V464h64v48h32V455c62.9-58.7 85.3-119 86-174c.7-55.5-20.7-103.5-39.9-136.6l-4.7-9.5C440.7 101.6 432 64.8 432 27.6V16 0H400zM272 96H240v16V240v16h32V240 112 96zM232 288v48h48V288H232z"/></svg>
